icons/offers-l-arrow.svg

<svg width="55" height="151" viewBox="0 0 55 151" fill="none" xmlns="http://www.w3.org/2000/svg">
<path d="M13.5507 98.2332L17.046 96.2882L13.5507 98.2332ZM39.1977 150.14C41.3222 150.746 43.5353 149.514 44.1408 147.39L54.0071 112.768C54.6125 110.644 53.381 108.431 51.2565 107.825C49.1319 107.22 46.9188 108.451 46.3134 110.576L37.5433 141.35L6.76857 132.58C4.64402 131.975 2.43092 133.206 1.82547 135.331C1.22003 137.456 2.45151 139.669 4.57607 140.274L39.1977 150.14ZM10.0554 100.178L36.7986 148.239L43.7892 144.349L17.046 96.2882L10.0554 100.178ZM38.349 0.893373C3.11918 20.497 -9.54829 64.9484 10.0554 100.178L17.046 96.2882C-0.409348 64.9192 10.8699 25.3393 42.2389 7.88397L38.349 0.893373Z" fill="url(#paint0_linear_436_416)"/>
<defs>
<linearGradient id="paint0_linear_436_416" x1="73.9217" y1="118.998" x2="10.147" y2="4.38867" gradientUnits="userSpaceOnUse">
<stop stop-color="#2E1ADE"/>
<stop offset="1" stop-color="white"/>
</linearGradient>
</defs>
</svg>

<svg xmlns="http://www.w3.org/2000/svg" width="55" height="151" fill="none"><path fill="url(#a)" d="m13.55 98.233 3.496-1.945zm25.648 51.907a4 4 0 0 0 4.943-2.75l9.866-34.622a4 4 0 0 0-7.694-2.192l-8.77 30.774-30.774-8.77a4 4 0 0 0-2.193 7.694zm-29.143-49.962L36.8 148.239l6.99-3.89-26.743-48.06zM38.35.893C3.119 20.497-9.548 64.948 10.055 100.178l6.991-3.89C-.409 64.92 10.87 25.34 42.239 7.884z"/><defs><linearGradient id="a" x1="73.922" x2="10.147" y1="118.998" y2="4.389" gradientUnits="userSpaceOnUse"><stop stop-color="#2E1ADE"/><stop offset="1" stop-color="#fff"/></linearGradient></defs></svg>
